X:40
T:Reavy's
C:Ed Reavy (?)
Z:Set: Reavy's/Providence/Peeler's Jacket
S:arr. Paddy O'Brien 
E:9
I:speed 300
M:C|
K:G
(3DEF|~G2BG dGBG|cBcd efge|~d2 BG dGBG|(3FED AD BDAF|\
~G2BG dGBG|cBcd efge|dgfg ecAF|GBAF G2:|\
Bd|~g2 fg edce|dfab afdg|bagf adBG|(3FED AD BDAD|\
~G2BG dGBG|cBcd efge|dgfg ecAF|GBAF G2:|**

